Sources/FrostedUI/Resources/Icons.xcassets/arrowUpRightFromSquare16.imageset/arrow-up-right-from-square-16.svg

<svg width="16" height="16" viewBox="0 0 16 16" fill="none" xmlns="http://www.w3.org/2000/svg" data-fui-icon="true">
  <path
    d="M6.16699 3.08301C6.58095 3.08318 6.91682 3.41905 6.91699 3.83301C6.91699 4.24711 6.58106 4.58283 6.16699 4.58301H4.58301C4.22182 4.58301 3.9927 4.58339 3.81934 4.59668C3.65419 4.60937 3.60196 4.63115 3.58398 4.63965C3.46204 4.69735 3.36336 4.79505 3.30566 4.91699C3.29716 4.93498 3.27636 4.98786 3.26367 5.15332C3.25039 5.32671 3.25 5.55577 3.25 5.91699V11.3662C3.25 11.752 3.25053 11.9969 3.26562 12.1816C3.28 12.3574 3.30368 12.4124 3.31348 12.4316C3.35545 12.514 3.4162 12.5849 3.49023 12.6387L3.56836 12.6865L3.63477 12.709C3.67286 12.7179 3.73056 12.7272 3.81836 12.7344C4.00307 12.7495 4.24805 12.75 4.63379 12.75H10.0332C10.4187 12.75 10.663 12.7494 10.8477 12.7344C11.0223 12.7201 11.078 12.6965 11.0977 12.6865H11.0986C11.2082 12.6306 11.2977 12.5413 11.3535 12.4316C11.3633 12.4124 11.387 12.3573 11.4014 12.1816C11.4165 11.9969 11.417 11.752 11.417 11.3662V9.33301C11.4172 8.91894 11.7529 8.58301 12.167 8.58301C12.5809 8.58318 12.9168 8.91905 12.917 9.33301V11.3662C12.917 11.7272 12.9177 12.0437 12.8965 12.3037C12.8745 12.5723 12.8249 12.8464 12.6895 13.1123C12.4898 13.5042 12.1712 13.8227 11.7793 14.0225C11.5133 14.158 11.2384 14.2075 10.9697 14.2295C10.7098 14.2507 10.394 14.25 10.0332 14.25H4.63379C4.2728 14.25 3.95625 14.2507 3.69629 14.2295C3.42764 14.2075 3.15358 14.1579 2.8877 14.0225V14.0234C2.49561 13.8237 2.17725 13.5042 1.97754 13.1123C1.84205 12.8464 1.79247 12.5724 1.77051 12.3037C1.74927 12.0437 1.75 11.7272 1.75 11.3662V5.91699C1.75 5.57877 1.74985 5.28214 1.76855 5.03809C1.78788 4.7863 1.83086 4.52882 1.9502 4.27637C2.15626 3.84069 2.50672 3.48929 2.94238 3.2832C3.19504 3.1637 3.45308 3.12088 3.70508 3.10156C3.94905 3.08286 4.24492 3.08301 4.58301 3.08301H6.16699ZM13.5 1.75C13.9142 1.75 14.25 2.08579 14.25 2.5V6.83301C14.25 7.24722 13.9142 7.58301 13.5 7.58301C13.0858 7.58301 12.75 7.24722 12.75 6.83301V4.31055L7.86328 9.19727C7.57036 9.48983 7.09552 9.49005 6.80273 9.19727C6.50995 8.90448 6.51017 8.42964 6.80273 8.13672L11.6895 3.25H9.16699C8.75278 3.25 8.41699 2.91421 8.41699 2.5C8.41699 2.08579 8.75278 1.75 9.16699 1.75H13.5Z"
    fill="currentColor"
  />
</svg>

<svg xmlns="http://www.w3.org/2000/svg" width="16" height="16" fill="none" data-fui-icon="true" viewBox="0 0 16 16"><path fill="currentColor" d="M6.167 3.083a.75.75 0 0 1 0 1.5H4.583c-.361 0-.59 0-.764.014a.7.7 0 0 0-.235.043.58.58 0 0 0-.278.277.7.7 0 0 0-.042.236c-.014.174-.014.403-.014.764v5.45c0 .385 0 .63.016.815.014.175.038.23.047.25a.6.6 0 0 0 .177.207l.078.048.067.022c.038.009.096.018.183.025.185.015.43.016.816.016h5.4c.385 0 .629 0 .814-.016.174-.014.23-.037.25-.047.11-.056.2-.146.255-.255.01-.02.034-.075.048-.25.015-.185.016-.43.016-.816V9.333a.75.75 0 0 1 1.5 0v2.033c0 .361 0 .678-.02.938a2.1 2.1 0 0 1-.207.808c-.2.392-.519.71-.91.91-.267.136-.542.185-.81.207-.26.022-.576.021-.937.021h-5.4c-.36 0-.677 0-.937-.02a2.1 2.1 0 0 1-.808-.207c-.392-.2-.71-.519-.91-.91a2.1 2.1 0 0 1-.207-.81c-.022-.26-.021-.576-.021-.937V5.917c0-.338 0-.635.019-.879.019-.252.062-.51.181-.762.206-.435.557-.787.992-.993.253-.12.511-.162.763-.181.244-.02.54-.019.878-.019zM13.5 1.75a.75.75 0 0 1 .75.75v4.333a.75.75 0 0 1-1.5 0V4.311L7.863 9.197a.75.75 0 0 1-1.06-1.06L11.69 3.25H9.167a.75.75 0 0 1 0-1.5z"/></svg>
